X:5740
T:Gan Ainm
M:3/4
L:1/8
K:CDor
C2CDEG|e2edcB|G2GFGB|D2DCDE|C2CEGc|= B2BGFD|\
G2cGFD:|C2CGA=B|c2cdec|d=B G2GF|E2EDEG|\
DGEGDG|c2cdec|d=B G3 A|B2BGBc|dc=BGFG|c2cdec|\
d=B G2GF|E2EDEG|DGEGDG|c2cdeg|fedc=BG|B2\
BGBc|dc=BGFD|C6||
